assets/images/HomeIcon.svg

<?xml version="1.0" encoding="utf-8"?>
<!-- Generator: Adobe Illustrator 24.2.1, SVG Export Plug-In . SVG Version: 6.00 Build 0)  -->
<svg version="1.1" id="Capa_1" xmlns="http://www.w3.org/2000/svg" xmlns:xlink="http://www.w3.org/1999/xlink" x="0px" y="0px"
	 viewBox="0 0 24 24" style="enable-background:new 0 0 24 24;" xml:space="preserve">
<style type="text/css">
	.st0{fill:#9A9AB0;}
</style>
<g>
	<path class="st0" d="M3,11h8V3H3V11z M5,5h4v4H5V5z"/>
	<path class="st0" d="M3,21h8v-8H3V21z M5,15h4v4H5V15z"/>
	<path class="st0" d="M13,21h8v-8h-8V21z M15,15h4v4h-4V15z"/>
	<path class="st0" d="M13,3v8h8V3H13z M19,9h-4V5h4V9z"/>
</g>
</svg>

<svg width="24" height="24" viewBox="0 0 24 24" fill="none" xmlns="http://www.w3.org/2000/svg">
<path d="M3 11H11V3H3V11ZM5 5H9V9H5V5Z" fill="#9A9AB0"/>
<path d="M3 21H11V13H3V21ZM5 15H9V19H5V15Z" fill="#9A9AB0"/>
<path d="M13 21H21V13H13V21ZM15 15H19V19H15V15Z" fill="#9A9AB0"/>
<path d="M13 3V11H21V3H13ZM19 9H15V5H19V9Z" fill="#9A9AB0"/>
</svg>
